X:1692
T:Boda y entierru contrastaos
R:Xiraldilla
C:Tradicional
S:Música Tradicional Asturiana, (C) Tello & Tito. Asturies, 2001.
S:http://pagina.de/MusTradAst <telloytito@asturies.org>
N:Canción usada en bailes de corro.
O:Teberga
A:Asturies
Z:DyC en Teberga
M:3/8
L:1/8
Q:3/8=60
K:Bb
F
|: B2 B|BcB|A>GF-|F2 G|A2 c|ccB|A2 A-|A2 F|
|G2 G|GAG|F>ED-|D2 E|F2 G|GAG|F2 F-|[1 F2 F :|[2 F2 z|


